www/assets/images/test_icons/flags/ME.svg

<svg fill="none" height="15" viewBox="0 0 21 15" width="21" xmlns="http://www.w3.org/2000/svg" xmlns:xlink="http://www.w3.org/1999/xlink"><mask id="a" height="13" maskUnits="userSpaceOnUse" width="19" x="1" y="1"><path d="m19 1h-17c-.55228 0-1 .44772-1 1v11c0 .5523.44772 1 1 1h17c.5523 0 1-.4477 1-1v-11c0-.55228-.4477-1-1-1z" fill="#fff"/></mask><path d="m19 0h-17c-1.10457 0-2 .89543-2 2v11c0 1.1046.89543 2 2 2h17c1.1046 0 2-.8954 2-2v-11c0-1.10457-.8954-2-2-2z" fill="#d4af2c"/><g mask="url(#a)"><path d="m19 1h-17c-.55228 0-1 .44772-1 1v11c0 .5523.44772 1 1 1h17c.5523 0 1-.4477 1-1v-11c0-.55228-.4477-1-1-1z" fill="#c60000"/><g clip-rule="evenodd" fill-rule="evenodd"><path d="m10.5 4.778-1.167-.778-.777.778h.777l-.777.778-1.556-.778v3.89l2.333-.78-.777 1.556h-.778l.778.778.777-.778 1.167 1.556zm1.167-.778.777.778h-.777l.777.778 1.556-.778v3.89l-2.333-.78.777 1.556h.778l-.778.778-.777-.778-1.167 1.556v-6.222z" fill="#d5b02b"/><path d="m9 6.505c0-.83.666-1.505 1.5-1.505.828 0 1.5.673 1.5 1.505v-.343c0 .83-.508 1.956-1.12 2.502l-.38.336-.38-.336c-.617-.55-1.12-1.67-1.12-2.502z" fill="#185d93"/><path d="m9 6h3v1h-3z" fill="#c58724"/></g><path d="m19 .5h-17c-.82843 0-1.5.67157-1.5 1.5v11c0 .8284.67157 1.5 1.5 1.5h17c.8284 0 1.5-.6716 1.5-1.5v-11c0-.82843-.6716-1.5-1.5-1.5z" stroke="#000" stroke-opacity=".1"/></g></svg>

<svg width="21" height="15" viewBox="0 0 21 15" fill="none" xmlns="http://www.w3.org/2000/svg">
<path d="M19 0H2C0.89543 0 0 0.89543 0 2V13C0 14.1046 0.89543 15 2 15H19C20.1046 15 21 14.1046 21 13V2C21 0.89543 20.1046 0 19 0Z" fill="#D4AF2C"/>
<mask id="mask0_3_99" style="mask-type:alpha" maskUnits="userSpaceOnUse" x="1" y="1" width="19" height="13">
<path d="M19 1H2C1.44772 1 1 1.44772 1 2V13C1 13.5523 1.44772 14 2 14H19C19.5523 14 20 13.5523 20 13V2C20 1.44772 19.5523 1 19 1Z" fill="white"/>
</mask>
<g mask="url(#mask0_3_99)">
<path d="M19 1H2C1.44772 1 1 1.44772 1 2V13C1 13.5523 1.44772 14 2 14H19C19.5523 14 20 13.5523 20 13V2C20 1.44772 19.5523 1 19 1Z" fill="#C60000"/>
<path fill-rule="evenodd" clip-rule="evenodd" d="M10.5 4.778L9.333 4L8.556 4.778H9.333L8.556 5.556L7 4.778V8.668L9.333 7.888L8.556 9.444H7.778L8.556 10.222L9.333 9.444L10.5 11V4.778ZM11.667 4L12.444 4.778H11.667L12.444 5.556L14 4.778V8.668L11.667 7.888L12.444 9.444H13.222L12.444 10.222L11.667 9.444L10.5 11V4.778L11.667 4Z" fill="#D5B02B"/>
<path fill-rule="evenodd" clip-rule="evenodd" d="M9 6.505C9 5.675 9.666 5 10.5 5C11.328 5 12 5.673 12 6.505V6.162C12 6.992 11.492 8.118 10.88 8.664L10.5 9L10.12 8.664C9.503 8.114 9 6.994 9 6.162V6.505Z" fill="#185D93"/>
<path fill-rule="evenodd" clip-rule="evenodd" d="M9 6H12V7H9V6Z" fill="#C58724"/>
<path d="M19 0.5H2C1.17157 0.5 0.5 1.17157 0.5 2V13C0.5 13.8284 1.17157 14.5 2 14.5H19C19.8284 14.5 20.5 13.8284 20.5 13V2C20.5 1.17157 19.8284 0.5 19 0.5Z" stroke="black" stroke-opacity="0.1"/>
</g>
</svg>
